!!!OTL-incipit: AUSBUENDIG SUESS
!!!ARE: Europa, Mitteleuropa, Deutschland, Kuhlaendchen
!!!SCT: Z0240
!!!YEM: Copyright 1995, estate of Helmut Schaffrath.
**kern	**text
*ICvox	*
*M3/4	*
*k[f#c#g#]	*
*A:	*
=1	=1
!LO:TX:a:t=Aus dem Kuhländchen.	!
{8aL	Aus-
16g#	.
16f#J	.
4e	-bün-
8g#L	-dig
8bJ	.
=2	=2
4a	ſüß,
4r	.
4r}	.
=3	=3
{8cc#	Hü-
8ee	-bel-
4dd	-ſchenks
4cc#	Ka-
=4	=4
8bL	-thri-
8aJ	.
8g#L	-na,
8f#J}	.
{8eL	ſie
8aJ	.
=5	=5
8g#	hat
8a	be-
8bL	-ſcheß-
8cc#J	.
8g#L	-na
8bJ	.
=6	=6
2a	Füß,
4r}	.
=7	=7
{8cc#	a
16cc#L	Paar
16bJ	.
4cc#	Aug-
4ee	-la
=8	=8
8ee	wie
16ddL	a
16cc#J	.
4.dd}	Koln,
{8cc#	da-
=9	=9
8cc#L	-ʒu
8bJ	.
4b	a
4ff#	ſpiʒ-
=10	=10
8cc#	-ʒi-
16cc#	-ges
16b	Mal
4cc#}	a
{4ee	.
=11	=11
8dd#	und
8ee	a
8ff#L	Hal-
8gg#J	.
8dd#L	-ſel
8ff#J	.
=12	=12
4ee	wie
16ff#L	a
16gg#J	.
16dd#L	.
16ff#J	.
4ee}	Storch.
==	==
!!!AGN: Romanze; Tanz, Hochzeit
!!!ONB: ESAC (Essen Associative Code) Database: ZUCCAL
!!!AMT: simple triple
!!!AIN: vox
!!!EED: Helmut Schaffrath
!!!EEV: 1.0
!!!GTL: III. Soldaten-, Jaeger-, Schiffer-, Fuhrmanns- und Handwerks-Lieder.
!!!URL-scan: https://www.digitale-sammlungen.de/de/view/bsb11160571?page=450
!!!ENC: Anna Maria Matuszewska
!!!EEV: 2025/01/29
*-	*-
